build/images/g27.svg

<svg width="138" height="138" viewBox="0 0 138 138" fill="none" xmlns="http://www.w3.org/2000/svg">
<circle cx="69" cy="69" r="69" fill="#76BD5E"/>
<path d="M106.683 34H30.3167C29.5925 34 29 34.5925 29 35.3167V106.417C29 107.141 29.5925 107.733 30.3167 107.733H34.2667V111.683C34.2667 112.408 34.8592 113 35.5833 113H101.417C102.141 113 102.733 112.408 102.733 111.683V107.733H106.683C107.408 107.733 108 107.141 108 106.417V35.3167C108 34.5925 107.408 34 106.683 34ZM100.1 110.367H36.9V107.733H100.1V110.367ZM105.367 105.1H31.6333V36.6333H105.367V105.1Z" fill="white"/>
<path d="M96.1499 49.8H40.8499C37.2126 49.8 34.2666 52.7461 34.2666 56.3834V94.5667C34.2666 98.204 37.2126 101.15 40.8499 101.15H96.1499C99.7872 101.15 102.733 98.204 102.733 94.5667V56.3834C102.733 52.7461 99.7872 49.8 96.1499 49.8ZM40.8829 87.9834H40.8499C40.1258 87.9834 39.5333 88.5759 39.5333 89.3C39.5333 90.7319 40.0106 92.1144 40.8829 93.25H40.8499C40.1258 93.25 39.5333 93.8426 39.5333 94.5667C39.5333 95.9986 40.0106 97.3811 40.8829 98.5167H40.8499C38.661 98.5167 36.8999 96.7557 36.8999 94.5667V56.3834C36.8999 54.1944 38.661 52.4334 40.8499 52.4334H96.1499C98.3389 52.4334 100.1 54.1944 100.1 56.3834V68.2498C95.2941 59.2307 85.0076 54.6059 75.0833 57.0088V55.0667H61.9166V62.9667H64.517C60.6658 66.8344 58.3451 71.9859 58.016 77.4501H55.3333V64.2834H51.3833V60.3334H55.3333V57.7H44.7999V60.3334H48.7499V64.2834H44.7999V77.4501H40.8499C40.1258 77.4501 39.5333 78.0425 39.5333 78.7667C39.5333 80.1986 40.0106 81.5811 40.8829 82.7167H40.8499C40.1258 82.7167 39.5333 83.3092 39.5333 84.0334C39.5333 85.4653 40.0106 86.8478 40.8829 87.9834ZM72.4499 57.7V60.3334H64.5499V57.7H72.4499ZM52.6999 66.9167V77.4501H47.4333V66.9167H52.6999ZM77.7166 98.5167H46.1166C44.4379 98.5167 42.9566 97.4634 42.397 95.8834H81.4527C80.8766 97.4634 79.3954 98.5167 77.7166 98.5167ZM77.7166 93.25H46.1166C44.4379 93.25 42.9566 92.1967 42.397 90.6167H81.4527C80.8766 92.1967 79.3954 93.25 77.7166 93.25ZM77.7166 87.9834H46.1166C44.4379 87.9834 42.9566 86.93 42.397 85.3501H81.4527C80.8766 86.93 79.3954 87.9834 77.7166 87.9834ZM77.7166 82.7167H46.1166C44.4379 82.7167 42.9566 81.6634 42.397 80.0834H81.4527C80.8766 81.6634 79.3954 82.7167 77.7166 82.7167ZM82.9504 87.9834C83.8226 86.8478 84.2999 85.4653 84.2999 84.0334C84.2999 83.3092 83.7074 82.7167 82.9833 82.7167H82.9504C83.8226 81.5811 84.2999 80.1986 84.2999 78.7667C84.2999 78.0425 83.7074 77.4501 82.9833 77.4501H67.2491C67.9733 70.2084 74.4249 64.9417 81.6666 65.6659C88.9083 66.39 94.1749 72.8417 93.4508 80.0834C92.9077 85.4817 89.1222 89.9913 83.9049 91.4561C84.1518 90.7648 84.2835 90.0571 84.2835 89.3165C84.2835 88.5923 83.691 87.9998 82.9668 87.9998L82.9504 87.9834ZM100.1 94.5667C100.1 96.7557 98.3389 98.5167 96.1499 98.5167H90.8668C94.7839 96.41 98.0097 93.2007 100.1 89.2836V94.5667ZM85.6495 97.7761C84.8266 98.0065 83.9708 98.1876 83.1314 98.3028C83.8885 97.2001 84.2999 95.8998 84.2999 94.5667C84.2999 94.4021 84.267 94.2376 84.2012 94.0894C92.6608 91.9663 97.8122 83.3915 95.6891 74.9155C93.566 66.4559 84.9912 61.3044 76.5152 63.4276C69.9647 65.0734 65.1754 70.7021 64.6158 77.4336H60.6822C61.0772 71.6896 63.941 66.4065 68.5329 62.9503H75.0833V59.7244C85.5837 56.8113 96.4627 62.9503 99.3758 73.4507C102.305 83.9675 96.1499 94.8465 85.6495 97.7761Z" fill="white"/>
<path d="M46.1166 39.2667H35.5833C34.8591 39.2667 34.2666 39.8592 34.2666 40.5834V45.8501C34.2666 46.5742 34.8591 47.1667 35.5833 47.1667H46.1166C46.8408 47.1667 47.4333 46.5742 47.4333 45.8501V40.5834C47.4333 39.8592 46.8408 39.2667 46.1166 39.2667ZM44.7999 44.5334H36.8999V41.9001H44.7999V44.5334Z" fill="white"/>
<path d="M61.9166 39.2667H51.3833C50.6592 39.2667 50.0667 39.8592 50.0667 40.5834V45.8501C50.0667 46.5742 50.6592 47.1667 51.3833 47.1667H61.9166C62.6408 47.1667 63.2333 46.5742 63.2333 45.8501V40.5834C63.2333 39.8592 62.6408 39.2667 61.9166 39.2667ZM60.6 44.5334H52.7V41.9001H60.6V44.5334Z" fill="white"/>
<path d="M102.733 39.2667H100.1V47.1667H102.733V39.2667Z" fill="white"/>
<path d="M97.4666 39.2667H94.8333V47.1667H97.4666V39.2667Z" fill="white"/>
<path d="M92.2 39.2667H89.5667V47.1667H92.2V39.2667Z" fill="white"/>
</svg>

<svg width="138" height="138" fill="none" xmlns="http://www.w3.org/2000/svg"><circle cx="69" cy="69" r="69" fill="#76BD5E"/><path d="M106.683 34H30.317A1.32 1.32 0 0029 35.317v71.1a1.32 1.32 0 001.317 1.316h3.95v3.95A1.32 1.32 0 0035.583 113h65.834a1.32 1.32 0 001.316-1.317v-3.95h3.95a1.32 1.32 0 001.317-1.316v-71.1A1.32 1.32 0 00106.683 34zm-6.583 76.367H36.9v-2.634h63.2v2.634zm5.267-5.267H31.633V36.633h73.734V105.1z" fill="#fff"/><path d="M96.15 49.8h-55.3a6.582 6.582 0 00-6.583 6.583v38.184a6.581 6.581 0 006.583 6.583h55.3a6.581 6.581 0 006.583-6.583V56.383A6.581 6.581 0 0096.15 49.8zM40.883 87.983h-.033a1.32 1.32 0 00-1.317 1.317 6.48 6.48 0 001.35 3.95h-.033a1.32 1.32 0 00-1.317 1.317 6.48 6.48 0 001.35 3.95h-.033a3.94 3.94 0 01-3.95-3.95V56.383a3.94 3.94 0 013.95-3.95h55.3a3.94 3.94 0 013.95 3.95V68.25c-4.806-9.02-15.092-13.644-25.017-11.241v-1.942H61.917v7.9h2.6a22.45 22.45 0 00-6.501 14.483h-2.683V64.283h-3.95v-3.95h3.95V57.7H44.8v2.633h3.95v3.95H44.8V77.45h-3.95a1.32 1.32 0 00-1.317 1.317 6.48 6.48 0 001.35 3.95h-.033a1.32 1.32 0 00-1.317 1.316c0 1.432.478 2.815 1.35 3.95zM72.45 57.7v2.633h-7.9V57.7h7.9zM52.7 66.917V77.45h-5.267V66.917H52.7zm25.017 31.6h-31.6a3.939 3.939 0 01-3.72-2.634h39.056a3.976 3.976 0 01-3.736 2.634zm0-5.267h-31.6a3.939 3.939 0 01-3.72-2.633h39.056a3.976 3.976 0 01-3.736 2.633zm0-5.267h-31.6a3.939 3.939 0 01-3.72-2.633h39.056a3.976 3.976 0 01-3.736 2.633zm0-5.266h-31.6a3.939 3.939 0 01-3.72-2.634h39.056a3.976 3.976 0 01-3.736 2.634zm5.233 5.266a6.478 6.478 0 001.35-3.95 1.32 1.32 0 00-1.317-1.316h-.033a6.478 6.478 0 001.35-3.95 1.32 1.32 0 00-1.317-1.317H67.25c.724-7.242 7.176-12.508 14.418-11.784 7.241.724 12.508 7.176 11.784 14.417a13.175 13.175 0 01-9.546 11.373 6.3 6.3 0 00.379-2.14A1.32 1.32 0 0082.967 88l-.017-.017zm17.15 6.584a3.94 3.94 0 01-3.95 3.95h-5.283a22.58 22.58 0 009.233-9.233v5.283zm-14.45 3.21c-.823.23-1.68.41-2.519.526a6.603 6.603 0 001.169-3.736c0-.165-.033-.33-.099-.478 8.46-2.123 13.611-10.698 11.488-19.174-2.123-8.46-10.698-13.61-19.174-11.487a15.8 15.8 0 00-11.9 14.006h-3.933a19.822 19.822 0 017.85-14.484h6.551v-3.226c10.5-2.913 21.38 3.226 24.293 13.727 2.929 10.517-3.226 21.396-13.727 24.325zm-39.533-58.51H35.583a1.32 1.32 0 00-1.316 1.316v5.267a1.32 1.32 0 001.316 1.317h10.534a1.32 1.32 0 001.316-1.317v-5.267a1.32 1.32 0 00-1.316-1.316zM44.8 44.533h-7.9V41.9h7.9v2.633zm17.117-5.266H51.383a1.32 1.32 0 00-1.316 1.316v5.267a1.32 1.32 0 001.316 1.317h10.534a1.32 1.32 0 001.316-1.317v-5.267a1.32 1.32 0 00-1.316-1.316zM60.6 44.533h-7.9V41.9h7.9v2.633zm42.133-5.266H100.1v7.9h2.633v-7.9zm-5.266 0h-2.634v7.9h2.634v-7.9zm-5.267 0h-2.633v7.9H92.2v-7.9z" fill="#fff"/></svg>
